assets/static/logos/el-barrio-inverse.svg

<svg width="476" height="677" viewBox="0 0 476 677" fill="none" xmlns="http://www.w3.org/2000/svg">
<g clip-path="url(#clip0_486_26137)">
<path d="M340.813 68.6986C330.085 71.5699 321.119 78.4547 315.558 88.0827L310.071 97.5826L318.771 130.043L336.138 99.963C338.518 95.8321 342.361 92.8861 346.95 91.6585C351.562 90.4203 356.354 91.0608 360.474 93.4411L379.869 104.638L355.265 147.249L350.185 156.055L345.104 164.861L333.49 184.982L342.19 217.442L366.9 174.639L371.981 165.833L377.062 157.027L412.329 95.9495L372.355 72.8721C362.737 67.3216 351.53 65.8486 340.791 68.7199" fill="white"/>
<path d="M376.859 315.408L357.336 304.436L343.823 296.836L328.772 240.669L320.073 208.209L305.354 153.28L303.454 146.171L300.081 133.565L296.707 120.969L296.665 120.82L283.333 71.0681L278.69 53.7441L234.115 65.6884C217.826 70.0541 206.415 83.5781 203.864 99.2263C203.267 102.877 203.171 106.634 203.597 110.434C203.822 112.494 204.163 114.565 204.708 116.625L205.754 120.553L229.119 207.771L253.253 221.701L258.227 224.572L254.406 210.312L251.417 199.168L228.169 112.409L227.646 110.466C226.792 107.285 226.91 104.083 227.732 101.126C227.806 100.87 227.838 100.614 227.924 100.358C228.383 98.9488 229.023 97.6146 229.802 96.3657C230.72 94.914 231.894 93.6331 233.197 92.491C235.182 90.7511 237.53 89.3635 240.252 88.6377L261.878 82.8416L268.731 108.427L272.104 121.023L275.477 133.629L279.842 149.918L288.542 182.377L294.946 206.277L303.646 238.737L314.843 280.536L296.302 270.108L265.817 252.965L260.864 250.179L236.847 236.676L207.59 220.217L199.541 215.691L199.595 215.755C193.457 212.179 186.359 210.098 178.759 210.098H68.6451L70.7265 333.576L70.908 344.581L71.0894 355.586L72.7119 451.941L226.024 520.447L377.905 452.581L398.239 363.346L399.147 359.386L398.464 359.226C398.752 356.984 398.858 354.743 398.805 352.512C398.709 348.445 398.047 344.421 396.852 340.546C393.703 330.299 386.839 321.172 376.848 315.408M97.1769 321.717C95.405 319.806 94.028 317.522 93.2275 314.982L92.4056 280.504V233.869H132.615V327.46H110.231C109.9 327.46 109.591 327.395 109.271 327.385C104.499 327.129 100.23 325.015 97.1876 321.717M156.386 306.25V233.869H178.78C185.537 233.869 191.418 237.637 194.439 243.188C195.816 245.717 196.606 248.61 196.606 251.695V364.36H174.212C164.381 364.36 156.386 356.365 156.386 346.534V306.25ZM303.261 300.347L325.229 313.028L332.37 317.148L364.979 335.977C366.495 336.853 367.786 337.942 368.971 339.116C371.319 341.443 373.091 344.229 374.073 347.281C374.66 349.107 374.98 351.007 375.045 352.928C375.098 354.625 374.959 356.344 374.575 358.041L375.077 358.062L366.238 396.862L363.474 408.988L359.001 428.618L357.379 435.727L344.495 441.48L226.034 494.413L96.1202 436.367L94.0174 347.932C99.0022 350.057 104.489 351.231 110.231 351.231H132.903C135.241 371.96 152.864 388.131 174.212 388.131H220.366V316.54C226.771 326.659 235.556 335.145 246.219 341.304L252.965 345.2L295.32 369.654L272.296 409.543L275.253 411.251C277.932 411.838 280.739 412.212 283.642 412.212C283.931 412.212 284.208 412.18 284.496 412.169C290.25 412.03 295.619 410.579 300.241 408.668L315.9 381.534L315.932 381.556L321.888 371.277L327.844 360.998L317.49 355.02L277.43 331.889L264.845 324.62L259.615 321.599L258.099 320.724C246.304 313.914 237.872 302.941 234.296 289.823C234.275 289.748 234.253 289.684 234.232 289.62C233.197 285.756 232.642 281.839 232.514 277.942C232.396 274.335 232.663 270.748 233.303 267.215C233.688 265.08 234.2 262.967 234.862 260.885L244.895 266.681L269.03 280.611L274.004 283.482L284.955 289.801L289.406 292.374L303.261 300.369V300.347Z" fill="white"/>
<path d="M261.686 588.569L241.288 597.546V609.672L261.686 600.695C266.169 598.72 266.863 597.727 266.863 594.013V590.693C266.863 586.989 266.169 586.594 261.686 588.569Z" fill="white"/>
<path d="M138.87 573.123V572.344C138.87 569.569 137.792 568.085 134.771 566.762L113.679 557.475V565.822L134.771 575.098C137.781 576.422 138.87 575.899 138.87 573.113V573.123Z" fill="white"/>
<path d="M179.41 606.726L195.944 613.995L187.672 589.049L179.41 606.726Z" fill="white"/>
<path d="M135.465 587.459L113.679 577.873V586.679L135.465 596.265C138.56 597.62 139.638 597.097 139.638 594.311V593.073C139.638 590.298 138.56 588.814 135.465 587.459Z" fill="white"/>
<path d="M324.716 560.827L304.318 569.804V581.929L324.716 572.953C329.199 570.978 329.893 569.985 329.893 566.271V562.951C329.893 559.247 329.199 558.852 324.716 560.827Z" fill="white"/>
<path d="M410.077 523.265L394.322 530.203C389.305 532.413 388.377 533.597 388.377 537.76V557.07C388.377 561.243 389.305 561.606 394.322 559.397L410.077 552.459C415.179 550.217 416.022 549.064 416.022 544.891V525.581C416.022 521.408 415.179 521.013 410.077 523.254V523.265Z" fill="white"/>
<path d="M475.05 83.5031L457.043 73.1065L393.34 36.3236C379.666 28.4248 364.136 24.2513 348.434 24.2513C340.578 24.2513 332.722 25.2866 325.1 27.3361C323.542 27.7524 321.994 28.2113 320.457 28.713L318.141 20.0777L312.761 -0.0109253L292.673 5.36881L221.615 24.4007C178.268 36.0141 150.782 77.6003 155.479 120.905L-6.10352e-05 190.639V574.65L226.034 676.011L452.069 574.65V190.639L421.199 176.795L464.664 101.51L475.061 83.5031H475.05ZM51.7692 522.357C51.7692 523.361 51.385 523.734 50.7445 523.457L24.8706 512.068V529.68L46.8698 539.361C47.5103 539.639 47.9052 540.354 47.9052 541.357V544.367C47.9052 545.371 47.5103 545.734 46.8698 545.456L24.8706 535.775V553.931L50.7445 565.32C51.385 565.598 51.7692 566.313 51.7692 567.317V570.327C51.7692 571.33 51.385 571.704 50.7445 571.426L21.3908 558.51C20.7077 558.212 20.3661 557.518 20.3661 556.514V505.535C20.3661 504.532 20.7077 504.147 21.3908 504.446L50.7445 517.362C51.385 517.639 51.7692 518.355 51.7692 519.358V522.368V522.357ZM87.346 585.985C87.346 586.989 86.951 587.352 86.3212 587.074L58.8355 574.981C58.1523 574.682 57.8108 573.988 57.8108 572.984V522.005C57.8108 521.002 58.1523 520.607 58.8355 520.916L61.2905 521.994C61.9737 522.293 62.3152 522.987 62.3152 523.99V570.412L86.3212 580.979C86.951 581.257 87.346 581.972 87.346 582.975V585.985ZM155.244 605.049C155.244 613.695 151.465 615.745 142.339 611.731L99.856 593.03C98.7032 592.518 98.0841 591.632 98.0841 590.554V539.884C98.0841 538.806 98.7032 538.454 99.856 538.966L141.57 557.326C150.611 561.307 154.465 566.708 154.465 575.365V577.766C154.465 584.875 151.839 587.501 145.893 586.039C152.458 589.85 155.244 594.781 155.244 602.199V605.06V605.049ZM219.587 645.728L206.148 639.815C204.761 639.206 204.056 638.353 203.672 637.104L200.737 628.244L174.703 616.791L171.767 623.067C171.383 623.975 170.614 624.177 169.291 623.601L156.546 617.986C155.543 617.538 155.073 616.567 155.468 615.734L176.709 574.415C177.094 573.508 177.873 573.305 179.26 573.913L196.873 581.662C198.186 582.239 198.879 583.082 199.349 584.374L220.591 644.394C220.975 645.568 220.516 646.134 219.587 645.728ZM283.557 620.591L268.336 627.294C266.863 627.935 266.254 627.903 265.4 627.273L252.111 617.367L241.298 622.128V637.499C241.298 638.577 240.604 639.505 239.441 640.018L227.465 645.291C226.312 645.803 225.693 645.451 225.693 644.373V593.703C225.693 592.625 226.312 591.728 227.465 591.227L269.563 572.696C278.679 568.683 282.468 570.722 282.468 579.378V590.116C282.468 598.762 278.679 604.921 269.563 608.924L269.328 609.031L284.165 618.638C284.784 619.065 284.4 620.239 283.546 620.612L283.557 620.591ZM346.577 592.849L331.355 599.542C329.882 600.193 329.274 600.15 328.42 599.52L315.131 589.615L304.318 594.375V609.746C304.318 610.824 303.624 611.753 302.461 612.265L290.484 617.538C289.332 618.05 288.713 617.698 288.713 616.62V565.95C288.713 564.862 289.332 563.976 290.484 563.474L332.583 544.944C341.699 540.93 345.488 542.969 345.488 551.626V562.364C345.488 571.01 341.699 577.169 332.583 581.171L332.348 581.278L347.185 590.896C347.804 591.323 347.409 592.497 346.566 592.87L346.577 592.849ZM367.348 582.004C367.348 583.093 366.655 584.011 365.491 584.523L353.515 589.796C352.362 590.309 351.743 589.956 351.743 588.878V538.208C351.743 537.13 352.362 536.234 353.515 535.732L365.491 530.459C366.644 529.947 367.348 530.256 367.348 531.334V582.004ZM431.628 543.054C431.628 551.7 427.774 557.112 418.734 561.094L385.751 575.61C376.784 579.549 372.771 577.617 372.771 568.96V539.617C372.771 530.971 376.784 525.485 385.751 521.546L418.734 507.029C427.774 503.048 431.628 505.055 431.628 513.711V543.065V543.054ZM416.823 142.776L402.114 168.245L397.033 177.051L391.952 185.857L401.484 190.137L411.016 194.417L431.831 203.747V470.588L418.467 476.576L226.024 562.876L28.82 474.441L20.238 470.588V203.747L63.5321 184.33L110.498 163.271L159.812 141.154L169.419 136.841L179.026 132.529L178.129 129.177C177.531 126.957 177.062 124.726 176.688 122.496C176.101 118.92 175.791 115.355 175.77 111.821C175.749 109.58 175.845 107.36 176.037 105.15C176.72 97.6249 178.641 90.3452 181.63 83.5458C181.908 82.9053 182.196 82.2756 182.495 81.6565C183.295 79.9806 184.139 78.3368 185.067 76.7357C185.846 75.3908 186.679 74.0779 187.544 72.7863C188.526 71.3133 189.55 69.8723 190.65 68.4847C191.696 67.1611 192.806 65.8802 193.948 64.6313C194.685 63.8308 195.432 63.0409 196.2 62.2723C198.506 59.9774 200.982 57.8319 203.619 55.8572C205.038 54.8005 206.49 53.7758 207.995 52.8258C209.906 51.6089 211.891 50.4882 213.951 49.4634C216.001 48.4387 218.125 47.4994 220.302 46.6775C222.48 45.8449 224.721 45.1191 227.027 44.5107L298.084 25.4681L301.351 37.6793L307.019 58.8246C307.584 58.4083 308.193 58.0454 308.758 57.6505C310.925 56.1241 313.188 54.7364 315.536 53.4769C320.233 50.9365 325.218 48.855 330.502 47.4354C334.75 46.2932 339.083 45.5781 343.439 45.2579C345.114 45.1404 346.78 45.055 348.455 45.055C360.517 45.055 372.451 48.2679 382.965 54.3308L423.355 77.6537L446.678 91.1137L416.855 142.766L416.823 142.776Z" fill="white"/>
</g>
<defs>
<clipPath id="clip0_486_26137">
<rect width="475.05" height="676.011" fill="white"/>
</clipPath>
</defs>
</svg>

<svg xmlns="http://www.w3.org/2000/svg" width="476" height="677" fill="none"><g fill="#fff" clip-path="url(#a)"><path d="M340.813 68.699c-10.728 2.87-19.694 9.756-25.255 19.384l-5.487 9.5 8.7 32.46 17.367-30.08a17.667 17.667 0 0 1 10.812-8.304 17.67 17.67 0 0 1 13.524 1.782l19.395 11.197-24.604 42.611-5.08 8.806-5.081 8.806-11.614 20.121 8.7 32.46 24.71-42.803 5.081-8.806 5.081-8.806 35.267-61.077-39.974-23.078c-9.618-5.55-20.825-7.023-31.564-4.152"/><path d="m376.859 315.408-19.523-10.972-13.513-7.6-15.051-56.167-8.699-32.46-14.719-54.929-1.9-7.109-3.373-12.606-3.374-12.596-.042-.149-13.332-49.752-4.643-17.324-44.575 11.944c-16.289 4.366-27.7 17.89-30.251 33.538a41.012 41.012 0 0 0-.267 11.208c.225 2.06.566 4.131 1.111 6.191l1.046 3.928 23.365 87.218 24.134 13.93 4.974 2.871-3.821-14.26-2.989-11.144-23.248-86.759-.523-1.943c-.854-3.181-.736-6.383.086-9.34.074-.256.106-.512.192-.768a18.202 18.202 0 0 1 1.878-3.992c.918-1.452 2.092-2.733 3.395-3.875 1.985-1.74 4.333-3.127 7.055-3.853l21.626-5.796 6.853 25.585 3.373 12.596 3.373 12.606 4.365 16.289 8.7 32.459 6.404 23.9 8.7 32.46 11.197 41.799-18.541-10.428-30.485-17.143-4.953-2.786-24.017-13.503-29.257-16.459-8.049-4.526.054.064c-6.138-3.576-13.236-5.657-20.836-5.657H68.645l2.082 123.478.181 11.005.181 11.005 1.623 96.355 153.312 68.506 151.881-67.866 20.334-89.235.908-3.96-.683-.16a44.37 44.37 0 0 0 .341-6.714 44.132 44.132 0 0 0-1.953-11.966c-3.149-10.247-10.013-19.374-20.004-25.138m-279.671 6.309c-1.772-1.911-3.149-4.195-3.95-6.735l-.821-34.478v-46.635h40.209v93.591h-22.384c-.331 0-.64-.065-.96-.075a17.671 17.671 0 0 1-12.083-5.668m59.198-15.467v-72.381h22.394c6.757 0 12.638 3.768 15.659 9.319a17.727 17.727 0 0 1 2.167 8.507V364.36h-22.394c-9.831 0-17.826-7.995-17.826-17.826V306.25Zm146.875-5.903 21.968 12.681 7.141 4.12 32.609 18.829c1.516.876 2.807 1.965 3.992 3.139 2.348 2.327 4.12 5.113 5.102 8.165.587 1.826.907 3.726.972 5.647a20.275 20.275 0 0 1-.47 5.113l.502.021-8.839 38.8-2.764 12.126-4.473 19.63-1.622 7.109-12.884 5.753-118.461 52.933L96.12 436.367l-2.103-88.435a41.271 41.271 0 0 0 16.214 3.299h22.672c2.338 20.729 19.961 36.9 41.309 36.9h46.154V316.54c6.405 10.119 15.19 18.605 25.853 24.764l6.746 3.896 42.355 24.454-23.024 39.889 2.957 1.708c2.679.587 5.486.961 8.389.961.289 0 .566-.032.854-.043 5.754-.139 11.123-1.59 15.745-3.501l15.659-27.134.032.022 5.956-10.279 5.956-10.279-10.354-5.978-40.06-23.131-12.585-7.269-5.23-3.021-1.516-.875c-11.795-6.81-20.227-17.783-23.803-30.901-.021-.075-.043-.139-.064-.203a51.647 51.647 0 0 1-1.718-11.678 50.792 50.792 0 0 1 .789-10.727 50.353 50.353 0 0 1 1.559-6.33l10.033 5.796 24.135 13.93 4.974 2.871 10.951 6.319 4.451 2.573 13.855 7.995v-.022ZM261.686 588.569l-20.398 8.977v12.126l20.398-8.977c4.483-1.975 5.177-2.968 5.177-6.682v-3.32c0-3.704-.694-4.099-5.177-2.124ZM138.87 573.123v-.779c0-2.775-1.078-4.259-4.099-5.582l-21.092-9.287v8.347l21.092 9.276c3.01 1.324 4.099.801 4.099-1.985v.01ZM179.41 606.726l16.534 7.269-8.272-24.946-8.262 17.677ZM135.465 587.459l-21.786-9.586v8.806l21.786 9.586c3.095 1.355 4.173.832 4.173-1.954v-1.238c0-2.775-1.078-4.259-4.173-5.614ZM324.716 560.827l-20.398 8.977v12.125l20.398-8.976c4.483-1.975 5.177-2.968 5.177-6.682v-3.32c0-3.704-.694-4.099-5.177-2.124ZM410.077 523.265l-15.755 6.938c-5.017 2.21-5.945 3.394-5.945 7.557v19.31c0 4.173.928 4.536 5.945 2.327l15.755-6.938c5.102-2.242 5.945-3.395 5.945-7.568v-19.31c0-4.173-.843-4.568-5.945-2.327v.011Z"/><path d="m475.05 83.503-18.007-10.397-63.703-36.782c-13.674-7.9-29.204-12.073-44.906-12.073a89.921 89.921 0 0 0-23.334 3.085 89.01 89.01 0 0 0-4.643 1.377l-2.316-8.635-5.38-20.089-20.088 5.38L221.615 24.4c-43.347 11.613-70.833 53.2-66.136 96.504L-.001 190.639V574.65l226.035 101.361L452.069 574.65V190.639l-30.87-13.844 43.465-75.285 10.397-18.007h-.011ZM51.77 522.357c0 1.004-.385 1.377-1.026 1.1l-25.873-11.389v17.612l21.999 9.681c.64.278 1.035.993 1.035 1.996v3.01c0 1.004-.395 1.367-1.035 1.089l-22-9.681v18.156l25.875 11.389c.64.278 1.024.993 1.024 1.997v3.01c0 1.003-.384 1.377-1.024 1.099L21.39 558.51c-.683-.298-1.025-.992-1.025-1.996v-50.979c0-1.003.342-1.388 1.025-1.089l29.354 12.916c.64.277 1.024.993 1.024 1.996v3.01-.011Zm35.576 63.628c0 1.004-.395 1.367-1.025 1.089l-27.485-12.093c-.684-.299-1.025-.993-1.025-1.997v-50.979c0-1.003.341-1.398 1.025-1.089l2.455 1.078c.683.299 1.024.993 1.024 1.996v46.422l24.006 10.567c.63.278 1.025.993 1.025 1.996v3.01Zm67.898 19.064c0 8.646-3.779 10.696-12.905 6.682L99.856 593.03c-1.153-.512-1.772-1.398-1.772-2.476v-50.67c0-1.078.62-1.43 1.772-.918l41.714 18.36c9.041 3.981 12.895 9.382 12.895 18.039v2.401c0 7.109-2.626 9.735-8.572 8.273 6.565 3.811 9.351 8.742 9.351 16.16v2.861-.011Zm64.343 40.679-13.439-5.913c-1.387-.609-2.092-1.462-2.476-2.711l-2.935-8.86-26.034-11.453-2.936 6.276c-.384.908-1.153 1.11-2.476.534l-12.745-5.615c-1.003-.448-1.473-1.419-1.078-2.252l21.241-41.319c.385-.907 1.164-1.11 2.551-.502l17.613 7.749c1.313.577 2.006 1.42 2.476 2.712l21.242 60.02c.384 1.174-.075 1.74-1.004 1.334Zm63.97-25.137-15.221 6.703c-1.473.641-2.082.609-2.936-.021l-13.289-9.906-10.813 4.761v15.371c0 1.078-.694 2.006-1.857 2.519l-11.976 5.273c-1.153.512-1.772.16-1.772-.918v-50.67c0-1.078.619-1.975 1.772-2.476l42.098-18.531c9.116-4.013 12.905-1.974 12.905 6.682v10.738c0 8.646-3.789 14.805-12.905 18.808l-.235.107 14.837 9.607c.619.427.235 1.601-.619 1.974l.011-.021Zm63.02-27.742-15.222 6.693c-1.473.651-2.081.608-2.935-.022l-13.289-9.905-10.813 4.76v15.371c0 1.078-.694 2.007-1.857 2.519l-11.977 5.273c-1.152.512-1.771.16-1.771-.918v-50.67c0-1.088.619-1.974 1.771-2.476l42.099-18.53c9.116-4.014 12.905-1.975 12.905 6.682v10.738c0 8.646-3.789 14.805-12.905 18.807l-.235.107 14.837 9.618c.619.427.224 1.601-.619 1.974l.011-.021Zm20.771-10.845c0 1.089-.693 2.007-1.857 2.519l-11.976 5.273c-1.153.513-1.772.16-1.772-.918v-50.67c0-1.078.619-1.974 1.772-2.476l11.976-5.273c1.153-.512 1.857-.203 1.857.875v50.67Zm64.28-38.95c0 8.646-3.854 14.058-12.894 18.04l-32.983 14.516c-8.967 3.939-12.98 2.007-12.98-6.65v-29.343c0-8.646 4.013-14.132 12.98-18.071l32.983-14.517c9.04-3.981 12.894-1.974 12.894 6.682v29.354-.011Zm-14.805-400.278-14.709 25.469-5.081 8.806-5.081 8.806 9.532 4.28 9.532 4.28 20.815 9.33v266.841l-13.364 5.988-192.443 86.3L28.82 474.441l-8.582-3.853V203.747l43.294-19.417 46.966-21.059 49.314-22.117 9.607-4.313 9.607-4.312-.897-3.352a70.473 70.473 0 0 1-1.441-6.681 68.396 68.396 0 0 1-.918-10.675 69.446 69.446 0 0 1 .267-6.671 69.212 69.212 0 0 1 5.593-21.604c.278-.64.566-1.27.865-1.89.8-1.675 1.644-3.32 2.572-4.92a71.621 71.621 0 0 1 2.477-3.95 64.449 64.449 0 0 1 3.106-4.301 70.596 70.596 0 0 1 3.298-3.854 79.77 79.77 0 0 1 2.252-2.359 69.988 69.988 0 0 1 7.419-6.415 69.136 69.136 0 0 1 4.376-3.031 64.872 64.872 0 0 1 5.956-3.363 67.765 67.765 0 0 1 6.351-2.785 65.908 65.908 0 0 1 6.725-2.167l71.057-19.043 3.267 12.211 5.668 21.146c.565-.417 1.174-.78 1.739-1.175a65.615 65.615 0 0 1 6.778-4.173c4.697-2.54 9.682-4.622 14.966-6.042a69.398 69.398 0 0 1 12.937-2.177c1.675-.118 3.341-.203 5.016-.203 12.062 0 23.996 3.213 34.51 9.276l40.39 23.323 23.323 13.46-29.823 51.652-.032.01Z"/></g><defs><clipPath id="a"><path fill="#fff" d="M0 0h475.05v676.011H0z"/></clipPath></defs></svg>
